!!!COM: Corelli, Arcangelo
!!!OTL: 
!!!ONM: Opus 3, No. 2
!!!OMV: 1
!!!CDT: 1653/2/17/-1713/1/8/
!!!OCY: Italia
**kern	**kern	**kern	**kern
*clefC	*clefC	*clefG	*clefG
*k[f#c#]	*k[f#c#]	*k[f#c#]	*k[f#c#]
*D:	*D:	*D:	*D:
*M4/4	*M4/4	*M4/4	*M4/4
=1	=1	=1	=1
8d	8d	2r	1dd
8c#	8c#	.	.
8B	8B	.	.
8A	8A	.	.
8B	8B	[2dd	.
8A	8A	.	.
8G	8G	.	.
8F#	8F#	.	.
=2	=2	=2	=2
8G	8G	4dd]	2ee
8E	8E	.	.
8A	8A	4cc#	.
8AA	8AA	.	.
8D	8D	4dd	2ff#
8E	8E	.	.
8F#	8F#	[4dd	.
8D	8D	.	.
=3	=3	=3	=3
8A	8A	4dd]	2ee
8B	8B	.	.
8c#	8c#	4cc#	.
8A	8A	.	.
4A	4A	2b	2dd
4G#	4G#	.	.
=4	=4	=4	=4
2A	2A	2e	2cc#
2r	2r	2r	2r
=5	=5	=5	=5
8A	8A	2r	1aa
8G#	8G#	.	.
8F#	8F#	.	.
8E	8E	.	.
8F#	8F#	[2aa	.
8E	8E	.	.
8D	8D	.	.
8C#	8C#	.	.
=6	=6	=6	=6
8D	8D	4aa]	2bb
8BB	8BB	.	.
8E	8E	4gg#	.
8EE	8EE	.	.
8AA	8AA	4aa	2ccc#
8A	8A	.	.
8c#	8c#	[4aa	.
8A	8A	.	.
=7	=7	=7	=7
8e	8e	4aa]	2bb
8E	8E	.	.
8G#	8G#	4gg#	.
8E	8E	.	.
4E	4E	2ff#	2aa
4D#	4D#	.	.
=8	=8	=8	=8
2E	2E	2b	2gg#
8E	8E	2r	4.ee
8F#	8F#	.	.
8G#	8G#	.	.
8E	8E	.	8dd
=9	=9	=9	=9
8A	8A	4.aa	8cc#
8B	8B	.	8dd
8c#	8c#	.	2ee
8A	8A	8gg	.
8d	8d	8ff#	.
8D	8D	8gg	.
8F#	8F#	[4aa	8dd
8D	8D	.	8cc#
=10	=10	=10	=10
8G	8G	4aa]	8b
8A	8A	.	8cc#
8B	8B	2gg	8dd
8G	8G	.	8b
4A	4A	.	8cc#
.	.	.	8a
8r	8r	4ff#	[4dd
8B	8B	.	.
=11	=11	=11	=11
8G	8G	2ee	4dd]
8E	8E	.	.
8r	8r	.	2cc#
8A	8A	.	.
8F#	8F#	2dd	.
8D	8D	.	.
8r	8r	.	[4b
8G	8G	.	.
=12	=12	=12	=12
8E	8E	2cc#	4b]
8C#	8C#	.	.
8F#	8F#	.	4a#
8FF#	8FF#	.	.
4BB	4BB	4b	8b
.	.	.	8cc#
8r	8r	4r	[4dd
8F#	8F#	.	.
=13	=13	=13	=13
8G	8G	2.ee	4dd]
8E	8E	.	.
8A	8A	.	4cc#
8AA	8AA	.	.
8D	8D	.	[2ff#
8E	8E	.	.
8F#	8F#	8dd	.
8D	8D	8cc#	.
=14	=14	=14	=14
4.G	4.G	4b	4ff#]
.	.	2gg	8ee
8G	8G	.	8dd
4.A	4.A	.	8cc#
.	.	.	8a
.	.	8ff#	[4aa
8A	8A	8ee	.
=15	=15	=15	=15
4.B	4.B	8dd	8aa]
.	.	8b	8dd
.	.	4bb	2gg
8B	8B	.	.
8c#	8c#	4.aa	.
8A	8A	.	.
8d	8d	.	4ff#
8D	8D	8aa	.
=16	=16	=16	=16
8G	8G	8bb	8b
8A	8A	8aa	8cc#
8B	8B	8gg	2dd
8F#	8F#	8ff#	.
8G	8G	2ee	.
8E	8E	.	.
8A	8A	.	4cc#
8AA	8AA	.	.
=17	=17	=17	=17
8D	8D	4dd	4.dd
8E	8E	.	.
8F#	8F#	4.a	.
8D	8D	.	8cc
4.G	4.G	.	4.b
.	.	8d	.
.	.	[4g	.
8GG	8GG	.	8ee
=18	=18	=18	=18
1AA	1AA	4g]	8cc#
.	.	.	8a
.	.	4f#	8dd
.	.	.	8d
.	.	2e	4.d
.	.	.	8c#
=19	=19	=19	=19
1DD	1DD	1d	1d
==	==	==	==
*-	*-	*-	*-
!!!RWG: This file only contains pitch and duration data.
!!!RWG: Transposing instruments are not transposed.
!!!RWG: Durations of rests and tied notes may be interpreted.
!!!RWG: Key is interpreted using the Humdrum key tool.
!!!SCA: 
!!!YOR: Chrysander Edition
!!!AGN: chamber
!!!AFT: stage1
!!!ENC: F. Bennion
!!!END: 1997/04/15
!!!AST: baroque
!!!YEC: Copyright 1994, Center for Computer Assisted Research in the Humanities
!!!YEM: Rights to all derivative electronic formats reserved.
!!!YEM: Refer to licensing agreement for further details.
!!!YEN: United States of America
!!!EED: W.B. Hewlett
!!!KEY: 3797459042
!!!EMD: Converted from MuseData to Humdrum Aug 9, 1999, by Bret Aarden using muse2kern.
!!!VTS: 2291615141
